src/svg/36/calendar_outline_36.svg

<svg fill="none" height="36" viewBox="0 0 36 36" width="36" xmlns="http://www.w3.org/2000/svg"><g fill="currentColor"><path d="m22.0086 24.0539c-.0086.0978-.0086.2139-.0086.4461 0 .2321 0 .3482.0086.4461.0951 1.0877.9575 1.9502 2.0453 2.0453.0979.0086.2139.0086.4461.0086s.3482 0 .4461-.0086c1.0878-.0951 1.9502-.9576 2.0453-2.0453.0086-.0979.0086-.214.0086-.4461 0-.2322 0-.3483-.0086-.4461-.0951-1.0878-.9575-1.9502-2.0453-2.0454-.0979-.0085-.2139-.0085-.4461-.0085s-.3482 0-.4461.0085c-1.0878.0952-1.9502.9576-2.0453 2.0454z"/><path clip-rule="evenodd" d="m10 2.57999c0-.69036.5596-1.25 1.25-1.25s1.25.55964 1.25 1.25v1.4576c.4207-.0203.883-.03245 1.3947-.03628l7.8498-.00132c.6577 0 1.2381.01263 1.7555.0376v-1.4576c0-.69036.5596-1.25 1.25-1.25s1.25.55964 1.25 1.25v1.76179c.7631.17668 1.3342.42021 1.9074.72674 1.3037.69723 2.3268 1.72038 3.0241 3.02408.6085 1.13783.9687 2.2676 1.0506 4.9074h.0179v2.5h-.0011l.0011 6.2444c0 3.5661-.3713 4.8593-1.0685 6.163-.6973 1.3037-1.7204 2.3268-3.0241 3.0241l-.2703.1395c-1.2226.6071-2.5725.929-5.8926.929h-7.489l-.7061-.0053c-3.0383-.0475-4.24299-.4141-5.45678-1.0632-1.30371-.6973-2.32686-1.7204-3.02409-3.0241l-.13959-.2704c-.60709-1.2225-.92894-2.5724-.92894-5.8926v-8.7444h.01794c.08182-2.6398.44208-3.76957 1.05059-4.9074.69723-1.3037 1.72038-2.32685 3.02409-3.02408l.27033-.13959c.48673-.2417.99365-.43819 1.63705-.58715zm13.5 3.95593v1.54407c0 .69035.5596 1.25 1.25 1.25s1.25-.55965 1.25-1.25v-1.13493c.2549.09228.4909.20099.7284.32799.868.46423 1.5343 1.13052 1.9985 1.99855.4799.8973.6986 1.7737.7567 3.7284h-22.9672c.05275-1.7754.23801-2.6612.63113-3.48117l.12553-.24723c.46423-.86803 1.13052-1.53432 1.99855-1.99855.23747-.127.47348-.23571.72839-.32799v1.13493c0 .69035.5596 1.25 1.25 1.25s1.25-.55965 1.25-1.25v-1.54407c.4991-.0247 1.0761-.03593 1.7555-.03593l7.8125.0009c.5416.00311 1.0141.01434 1.432.03503zm-17 15.20848v-6.2444h23v6.2444l-.0036.6315c-.0295 2.4026-.2413 3.3648-.7695 4.3525-.4642.868-1.1305 1.5343-1.9985 1.9985-1.0699.5722-2.1101.7731-4.9839.7731l-7.8125-.0009c-2.6304-.0151-3.6316-.222-4.66039-.7722-.86803-.4642-1.53432-1.1305-1.99855-1.9985-.5722-1.07-.77306-2.1101-.77306-4.984z" fill-rule="evenodd"/></g></svg>

<svg width="36" height="36" viewBox="0 0 36 36" fill="none" xmlns="http://www.w3.org/2000/svg">
<path fill-rule="evenodd" clip-rule="evenodd" d="M10 2.58C10 1.88965 10.5596 1.33 11.25 1.33C11.9404 1.33 12.5 1.88965 12.5 2.58V4.03761C12.9207 4.0173 13.383 4.00516 13.8947 4.00132L21.7445 4C22.4022 4 22.9826 4.01263 23.5 4.03761V2.58C23.5 1.88965 24.0596 1.33 24.75 1.33C25.4404 1.33 26 1.88965 26 2.58V4.34179C26.7631 4.51847 27.3342 4.76201 27.9074 5.06853C29.2111 5.76576 30.2342 6.78892 30.9315 8.09262C31.54 9.23044 31.9002 10.3602 31.9821 13H32V15.5H31.9989L32 21.7445C32 25.3105 31.6287 26.6037 30.9315 27.9074C30.2342 29.2111 29.2111 30.2342 27.9074 30.9315L27.6371 31.0711C26.4145 31.6781 25.0646 32 21.7445 32H14.2555L13.5494 31.9947C10.5111 31.9472 9.30641 31.5806 8.09262 30.9315C6.78891 30.2342 5.76576 29.2111 5.06853 27.9074L4.92894 27.6371C4.32185 26.4145 4 25.0646 4 21.7445V15.5V14.2555V13H4.01794C4.09976 10.3602 4.46002 9.23044 5.06853 8.09262C5.76576 6.78892 6.78891 5.76576 8.09262 5.06853L8.36295 4.92894C8.84968 4.68724 9.3566 4.49076 10 4.34179V2.58ZM23.5 6.53594V8.08C23.5 8.77036 24.0596 9.33 24.75 9.33C25.4404 9.33 26 8.77036 26 8.08V6.94508C26.2549 7.03736 26.4909 7.14606 26.7284 7.27307C27.5964 7.73729 28.2627 8.40358 28.7269 9.27162C29.2068 10.1689 29.4255 11.0453 29.4836 13H6.5164C6.56915 11.2246 6.75441 10.3388 7.14753 9.51884L7.27306 9.27162C7.73729 8.40358 8.40358 7.73729 9.27161 7.27307C9.50908 7.14606 9.74509 7.03736 10 6.94508V8.08C10 8.77036 10.5596 9.33 11.25 9.33C11.9404 9.33 12.5 8.77036 12.5 8.08V6.53594C12.9991 6.51123 13.5761 6.5 14.2555 6.5L22.068 6.5009C22.6096 6.50401 23.0821 6.51525 23.5 6.53594ZM6.5 21.7445V15.5H29.5V21.7445L29.4964 22.376C29.4669 24.7785 29.2551 25.7408 28.7269 26.7284C28.2627 27.5964 27.5964 28.2627 26.7284 28.7269C25.6585 29.2991 24.6183 29.5 21.7445 29.5L13.932 29.4991C11.3016 29.484 10.3004 29.2771 9.27161 28.7269C8.40358 28.2627 7.73729 27.5964 7.27306 26.7284C6.70086 25.6585 6.5 24.6183 6.5 21.7445ZM22.0086 24.0539C22 24.1518 22 24.2678 22 24.5C22 24.7322 22 24.8482 22.0086 24.9461C22.1037 26.0339 22.9661 26.8963 24.0539 26.9914C24.1518 27 24.2678 27 24.5 27C24.7322 27 24.8482 27 24.9461 26.9914C26.0339 26.8963 26.8963 26.0339 26.9914 24.9461C27 24.8482 27 24.7322 27 24.5C27 24.2678 27 24.1518 26.9914 24.0539C26.8963 22.9661 26.0339 22.1037 24.9461 22.0086C24.8482 22 24.7322 22 24.5 22C24.2678 22 24.1518 22 24.0539 22.0086C22.9661 22.1037 22.1037 22.9661 22.0086 24.0539Z" fill="currentColor"/>
</svg>
